dist/assets/img/questions/2/backdrop_1200.svg

<svg width="794" height="364" viewBox="0 0 794 364" fill="none" xmlns="http://www.w3.org/2000/svg">
<g filter="url(#filter0_di_1419_48687)">
<path fill-rule="evenodd" clip-rule="evenodd" d="M429.801 309.935C191.089 325.866 0.731052 248.081 46.9621 128.972C87.342 24.9372 271.497 20.1676 429.801 33.1591C432.707 33.3976 435.613 33.635 438.518 33.8722C555.646 43.4395 670.625 52.8313 705.081 128.972C707.139 133.52 711.619 136.553 716.605 136.804C728.347 137.396 741.846 140.312 753.633 148.265C753.769 148.356 753.705 148.568 753.541 148.569C745.544 148.621 736.913 148.677 728.555 150.075C718.582 151.742 713.691 161.81 712.507 171.851C703.685 246.689 577.552 300.075 429.801 309.935Z" fill="white"/>
</g>
<defs>
<filter id="filter0_di_1419_48687" x="0" y="0" width="793.707" height="364" filterUnits="userSpaceOnUse" color-interpolation-filters="sRGB">
<feFlood flood-opacity="0" result="BackgroundImageFix"/>
<feColorMatrix in="SourceAlpha" type="matrix" values="0 0 0 0 0 0 0 0 0 0 0 0 0 0 0 0 0 0 127 0" result="hardAlpha"/>
<feOffset dy="12"/>
<feGaussianBlur stdDeviation="20"/>
<feComposite in2="hardAlpha" operator="out"/>
<feColorMatrix type="matrix" values="0 0 0 0 0.909804 0 0 0 0 0.313726 0 0 0 0 0.470588 0 0 0 1 0"/>
<feBlend mode="normal" in2="BackgroundImageFix" result="effect1_dropShadow_1419_48687"/>
<feBlend mode="normal" in="SourceGraphic" in2="effect1_dropShadow_1419_48687" result="shape"/>
<feColorMatrix in="SourceAlpha" type="matrix" values="0 0 0 0 0 0 0 0 0 0 0 0 0 0 0 0 0 0 127 0" result="hardAlpha"/>
<feOffset dy="-4"/>
<feGaussianBlur stdDeviation="4"/>
<feComposite in2="hardAlpha" operator="arithmetic" k2="-1" k3="1"/>
<feColorMatrix type="matrix" values="0 0 0 0 0.909804 0 0 0 0 0.313726 0 0 0 0 0.470588 0 0 0 0.48 0"/>
<feBlend mode="normal" in2="shape" result="effect2_innerShadow_1419_48687"/>
</filter>
</defs>
</svg>

<svg width="794" height="364" viewBox="0 0 794 364" fill="none" xmlns="http://www.w3.org/2000/svg"><g filter="url(#filter0_di_1419_48687)"><path fill-rule="evenodd" clip-rule="evenodd" d="M429.801 309.935C191.089 325.866.731 248.081 46.962 128.972 87.342 24.937 271.497 20.168 429.801 33.159c2.906.239 5.812.476 8.717.713 117.128 9.568 232.107 18.96 266.563 95.1 2.058 4.548 6.538 7.581 11.524 7.832 11.742.592 25.241 3.508 37.028 11.461.136.091.072.303-.092.304-7.997.052-16.628.108-24.986 1.506-9.973 1.667-14.864 11.735-16.048 21.776-8.822 74.838-134.955 128.224-282.706 138.084z" fill="#fff"/></g><defs><filter id="filter0_di_1419_48687" x="0" y="0" width="793.707" height="364" filterUnits="userSpaceOnUse" color-interpolation-filters="sRGB"><feFlood flood-opacity="0" result="BackgroundImageFix"/><feColorMatrix in="SourceAlpha" values="0 0 0 0 0 0 0 0 0 0 0 0 0 0 0 0 0 0 127 0" result="hardAlpha"/><feOffset dy="12"/><feGaussianBlur stdDeviation="20"/><feComposite in2="hardAlpha" operator="out"/><feColorMatrix values="0 0 0 0 0.909804 0 0 0 0 0.313726 0 0 0 0 0.470588 0 0 0 1 0"/><feBlend in2="BackgroundImageFix" result="effect1_dropShadow_1419_48687"/><feBlend in="SourceGraphic" in2="effect1_dropShadow_1419_48687" result="shape"/><feColorMatrix in="SourceAlpha" values="0 0 0 0 0 0 0 0 0 0 0 0 0 0 0 0 0 0 127 0" result="hardAlpha"/><feOffset dy="-4"/><feGaussianBlur stdDeviation="4"/><feComposite in2="hardAlpha" operator="arithmetic" k2="-1" k3="1"/><feColorMatrix values="0 0 0 0 0.909804 0 0 0 0 0.313726 0 0 0 0 0.470588 0 0 0 0.48 0"/><feBlend in2="shape" result="effect2_innerShadow_1419_48687"/></filter></defs></svg>
